X: 18
T: O invida fortuna
N: Derived from Tin3008-O_invida_fortuna.krn
C: Johannes Tinctoris
%%abc-version 2.0
%%abcx-abcm2ps-target-version 5.9.1 (29 Sep 2008)
%%abc-creator hum2abc beta
%%abcx-conversion-date 2019/02/17 07:34:55
%%abc-edited-by Jesse Rodin
%%abc-edited-by Chris Gage 01-29-2015
%%abcx-initial-encoding-date 2015/03/07/
%%humdrum-veritas 2793944843
%%humdrum-veritas-data 2914040126
%%linebreak <none>
%%barnumbers 0
L: 1/4
M: 3/1
Q: 1/2=120
V: 1 clef=treble
V: 2 clef=treble-8
V: 3 clef=bass
K: C
[V:1] E8F4 | 
[V:2] e8d4 | 
[V:3] E,3F,G,2A,2D,4 | 
[V:1] G2A3GF2E4 | 
[V:2] B2c2d4c2A2- | 
[V:3] G,2F,2D,4A,2C2- | 
[V:1] F2G3FE4D2 | 
[V:2] A2G2E4F4 | 
[V:3] C2D2E3/D/B,3A,/G,/A,2 | 
[V:1] E12 | 
[V:2] E4z4G4 | 
[V:3] B,2G,2A,3G,/F,/E,4 | 
[V:1] z4z4G4 | 
[V:2] A4B6AB | 
[V:3] F,6D4CA, | 
[V:1] A4B6AB | 
[V:2] c4d8 | 
[V:3] A,4G,8 | 
[V:1] c8B4- | 
[V:2] c3BA4G2d2- | 
[V:3] C,2F,3E,F,2G,4- | 
[V:1] B2A3GG4^F2 | 
[V:2] d2c2d2B2A4 | 
[V:3] G,2A,2D,2G,2D,4 | 
[V:1] G8z4 | 
[V:2] G4z4c4- | 
[V:3] z2D2C3B,A,4 | 
[V:1] G4A8 | 
[V:2] c2B2c4d4 | 
[V:3] z2G,2F,8 | 
[V:1] G6A3Bc2 | 
[V:2] e3d/c/B2A2c4 | 
[V:3] E,3F,G,2F,3G,A,2 | 
[V:1] A2G4c4B2 | 
[V:2] d2e2c4d4 | 
[V:3] F,2E,4A,2G,4 | 
[V:1] c12 | 
[V:2] c12 | 
[V:3] C,3D,E,2F,3E,C,2 | 
[V:1] A6GFE4 | 
[V:2] z4z4A4- | 
[V:3] F,3G,A,2B,2C4- | 
[V:1] F4G4A4 | 
[V:2] A2GFE4F4 | 
[V:3] C2B,A,B,2C4D2- | 
[V:1] B2c3BA4G2 | 
[V:2] G2A3Gc2B4 | 
[V:3] D2C2A,2F,2G,4 | 
[V:1] A12 | 
[V:2] A8z4 | 
[V:3] z2D,3E,F,3G,A,F, | 
[V:1] z4z4E4 | 
[V:2] E4F2G3FE2 | 
[V:3] G,4A,2B,4C2 | 
[V:1] F2G3FE2D4 | 
[V:2] D2E2C2c4B2 | 
[V:3] D2B,2C4G,4 | 
[V:1] C8z4 | 
[V:2] c4z4A4- | 
[V:3] C,2F,3G,A,B,C4- | 
[V:1] E6F2G4 | 
[V:2] A2B2c2A4G2 | 
[V:3] C2G,2A,2D,2E,4 | 
[V:1] A6G2F3E | 
[V:2] A2c4B2A3G | 
[V:3] F,6G,2D,4- | 
[V:1] F2G3FE4D2 | 
[V:2] A2G2E2G2F4 | 
[V:3] D,2D2E2B,3A,/G,/A,2 | 
[V:1] E12 |]  
[V:2] E12 |]  
[V:3] B,12 |]  



